Delta/apps/scalable/gnome-settings.svg

<svg xmlns="http://www.w3.org/2000/svg" width="192" height="192" viewBox="0 0 192 192">
  <g fill="none" fill-rule="evenodd">
    <path fill="#B1B5BD" d="M76.5897853,180.375153 C74.5417351,182.231211 70.8761062,182.740233 68.4013983,181.511601 L49.4774205,172.116309 C47.0031494,170.887893 45.1381775,167.661987 45.3125399,164.900738 L45.9980421,154.044942 C46.1721131,151.288308 44.9129554,147.310084 43.1880953,145.162395 L38.1113795,138.841184 C36.3854177,136.692123 32.7846312,134.591648 30.0425101,134.145364 L20.2378535,132.549641 C17.5075017,132.105271 14.8381114,129.555789 14.27648,126.85942 L9.75283172,105.141576 C9.19080781,102.443323 10.571702,98.9720183 12.8326721,97.3913268 L20.1173554,92.2984523 C22.3803282,90.7163607 24.6961765,87.2400793 25.2861185,84.5514104 L27.200741,75.8254927 C27.7923972,73.1290111 27.1736257,68.987948 25.8251033,66.5876095 L21.976358,59.7369322 C20.624958,57.3314717 20.947358,53.6460395 22.694396,51.5078134 L37.3532909,33.5665706 C39.1012522,31.4272143 42.6698216,30.3290358 45.3137749,31.1107227 L51.9252335,33.0654057 C54.5737261,33.8484347 58.7332091,33.4962903 61.2165294,32.2784618 L70.2251693,27.8605954 C72.7081178,26.6429493 75.5649565,23.5774146 76.6010919,21.0258578 L79.0510942,14.9925537 C80.0894705,12.4354784 83.17502,10.3532669 85.9325572,10.3418468 L109.336596,10.2449211 C112.098747,10.2334819 115.182066,12.3029956 116.220809,14.8609733 L118.619015,20.7667267 C119.65891,23.3275411 122.524681,26.3773844 125.009271,27.5736277 L134.565504,32.1746207 C137.05485,33.3731539 141.228537,33.7074305 143.866578,32.9274916 L150.512573,30.9625977 C153.160068,30.1798637 156.729873,31.2694865 158.492711,33.4045204 L172.950649,50.9150327 C174.710462,53.0464034 175.038406,56.7298171 173.686014,59.1370391 L169.913356,65.8522682 C168.559673,68.2617862 167.946156,72.4008371 168.541397,75.0897377 L170.748647,85.0606103 C171.344618,87.7528058 173.657745,91.2146515 175.92081,92.7968084 L183.159469,97.8575087 C185.420005,99.4378974 186.790387,102.917129 186.22283,105.616574 L181.783769,126.729876 C181.215081,129.434701 178.536519,131.988304 175.817253,132.430869 L166.02633,134.024357 C163.299802,134.468104 159.68496,136.559023 157.942208,138.707061 L152.198101,145.786988 C150.459891,147.929427 149.191907,151.900931 149.365515,154.650241 L150.04307,165.380184 C150.216887,168.132784 148.339685,171.347398 145.868338,172.5514 L127.096656,181.696669 C124.617198,182.904622 120.944615,182.377132 118.899297,180.523549 L110.50015,172.911769 C108.452331,171.05592 104.550875,169.683092 101.805346,169.844336 L102.987032,169.774936 C100.232844,169.936689 95.7756031,169.928202 93.0044385,169.754282 L93.6090719,169.792229 C90.8500258,169.61907 86.9595207,170.977514 84.9050541,172.839388 L76.5897853,180.375153 Z"/>
    <circle cx="98" cy="96" r="35" fill="#4A4A4A"/>
    <circle cx="98.5" cy="96.5" r="53.5" stroke="#F9DE81" stroke-width="10"/>
  </g>
</svg>

<?xml version="1.0" encoding="UTF-8" standalone="no"?>
<svg
   xmlns:dc="http://purl.org/dc/elements/1.1/"
   xmlns:cc="http://creativecommons.org/ns#"
   xmlns:rdf="http://www.w3.org/1999/02/22-rdf-syntax-ns#"
   xmlns:svg="http://www.w3.org/2000/svg"
   xmlns="http://www.w3.org/2000/svg"
   xmlns:sodipodi="http://sodipodi.sourceforge.net/DTD/sodipodi-0.dtd"
   xmlns:inkscape="http://www.inkscape.org/namespaces/inkscape"
   width="192"
   height="192"
   viewBox="0 0 192 192"
   version="1.1"
   id="svg865"
   sodipodi:docname="gnome-tweak-tool.svg"
   inkscape:version="0.92.4 (f8dce91, 2019-08-02)">
  <metadata
     id="metadata871">
    <rdf:RDF>
      <cc:Work
         rdf:about="">
        <dc:format>image/svg+xml</dc:format>
        <dc:type
           rdf:resource="http://purl.org/dc/dcmitype/StillImage" />
      </cc:Work>
    </rdf:RDF>
  </metadata>
  <defs
     id="defs869" />
  <sodipodi:namedview
     pagecolor="#ffffff"
     bordercolor="#666666"
     borderopacity="1"
     objecttolerance="10"
     gridtolerance="10"
     guidetolerance="10"
     inkscape:pageopacity="0"
     inkscape:pageshadow="2"
     inkscape:window-width="1920"
     inkscape:window-height="1004"
     id="namedview867"
     showgrid="false"
     inkscape:zoom="1.489712"
     inkscape:cx="190.88389"
     inkscape:cy="104.11355"
     inkscape:window-x="0"
     inkscape:window-y="0"
     inkscape:window-maximized="1"
     inkscape:current-layer="svg865" />
  <path
     style="fill:#98dc9a;fill-rule:evenodd;fill-opacity:1"
     inkscape:connector-curvature="0"
     id="path857"
     d="m 76.589785,180.37515 c -2.04805,1.85606 -5.713679,2.36508 -8.188387,1.13645 L 49.47742,172.11631 c -2.474271,-1.22842 -4.339243,-4.45432 -4.16488,-7.21557 l 0.685502,-10.8558 c 0.174071,-2.75663 -1.085087,-6.73486 -2.809947,-8.88255 l -5.076716,-6.32121 c -1.725961,-2.14906 -5.326748,-4.24953 -8.068869,-4.69582 l -9.804657,-1.59572 c -2.730351,-0.44437 -5.399742,-2.99385 -5.961373,-5.69022 L 9.7528317,105.14158 c -0.5620239,-2.69826 0.8188703,-6.169562 3.0798403,-7.750253 l 7.284683,-5.092875 c 2.262973,-1.582091 4.578821,-5.058373 5.168763,-7.747042 l 1.914623,-8.725917 c 0.591656,-2.696482 -0.02712,-6.837545 -1.375638,-9.237884 l -3.848745,-6.850677 c -1.3514,-2.40546 -1.029,-6.090893 0.718038,-8.229119 L 37.353291,33.566571 c 1.747961,-2.139357 5.316531,-3.237535 7.960484,-2.455848 l 6.611458,1.954683 c 2.648493,0.783029 6.807976,0.430884 9.291296,-0.786944 l 9.00864,-4.417867 c 2.482949,-1.217646 5.339787,-4.28318 6.375923,-6.834737 l 2.450002,-6.033304 c 1.038377,-2.557076 4.123926,-4.639287 6.881463,-4.650707 l 23.404043,-0.09693 c 2.76215,-0.01144 5.84547,2.058075 6.88421,4.616052 l 2.39821,5.905754 c 1.03989,2.560814 3.90566,5.610657 6.39025,6.806901 l 9.55623,4.600993 c 2.48935,1.198533 6.66304,1.532809 9.30108,0.752871 l 6.64599,-1.964894 c 2.6475,-0.782734 6.2173,0.306888 7.98014,2.441922 l 14.45794,17.510513 c 1.75981,2.13137 2.08776,5.814784 0.73536,8.222006 l -3.77265,6.715229 c -1.35369,2.409518 -1.9672,6.548569 -1.37196,9.23747 l 2.20725,9.970872 c 0.59597,2.692196 2.90909,6.154042 5.17216,7.736198 l 7.23866,5.060701 c 2.26053,1.580388 3.63092,5.059625 3.06336,7.759065 l -4.43906,21.11331 c -0.56869,2.70482 -3.24725,5.25842 -5.96652,5.70099 l -9.79092,1.59349 c -2.72653,0.44374 -6.34137,2.53466 -8.08412,4.6827 l -5.74411,7.07993 c -1.73821,2.14244 -3.00619,6.11394 -2.83259,8.86325 l 0.67756,10.72994 c 0.17382,2.7526 -1.70339,5.96722 -4.17473,7.17122 l -18.77168,9.14527 c -2.47946,1.20795 -6.15204,0.68046 -8.19736,-1.17312 l -8.39915,-7.61178 c -2.04782,-1.85585 -5.94927,-3.22868 -8.6948,-3.06743 l 1.18168,-0.0694 c -2.75419,0.16175 -7.211427,0.15326 -9.982591,-0.0207 l 0.604633,0.0379 c -2.759046,-0.17316 -6.649551,1.18528 -8.704018,3.04716 z" />
  <circle
     style="fill:#54688c;fill-rule:evenodd;fill-opacity:1"
     id="circle859"
     r="35"
     cy="96"
     cx="98" />
  <circle
     style="fill:none;fill-rule:evenodd;stroke:#f9de81;stroke-width:10"
     id="circle861"
     r="53.5"
     cy="96.5"
     cx="98.5" />
</svg>
